symbols/it/speed-distant-2-{160}.svg

<?xml version="1.0" encoding="UTF-8" standalone="no"?>
<svg
   width="18"
   height="15.296875"
   viewBox="0 0 18 15.296875"
   version="1.1"
   id="svg3017"
   sodipodi:docname="speed-distant-2-{160}.svg"
   inkscape:version="1.2.2 (b0a8486541, 2022-12-01)"
   xmlns:inkscape="http://www.inkscape.org/namespaces/inkscape"
   xmlns:sodipodi="http://sodipodi.sourceforge.net/DTD/sodipodi-0.dtd"
   xmlns:xlink="http://www.w3.org/1999/xlink"
   xmlns="http://www.w3.org/2000/svg"
   xmlns:svg="http://www.w3.org/2000/svg">
  <sodipodi:namedview
     id="namedview3019"
     pagecolor="#ffffff"
     bordercolor="#666666"
     borderopacity="1.0"
     inkscape:showpageshadow="2"
     inkscape:pageopacity="0.0"
     inkscape:pagecheckerboard="0"
     inkscape:deskcolor="#d1d1d1"
     showgrid="false"
     inkscape:zoom="38.361112"
     inkscape:cx="3.154236"
     inkscape:cy="8.9283126"
     inkscape:window-width="2560"
     inkscape:window-height="1368"
     inkscape:window-x="0"
     inkscape:window-y="0"
     inkscape:window-maximized="1"
     inkscape:current-layer="svg3017" />
  <defs
     id="defs3003">
    <filter
       id="filter-remove-color"
       x="0"
       y="0"
       width="1"
       height="1">
      <feColorMatrix
         color-interpolation-filters="sRGB"
         values="0 0 0 0 1 0 0 0 0 1 0 0 0 0 1 0 0 0 1 0"
         id="feColorMatrix2980" />
    </filter>
    <image
       id="source-17"
       x="0"
       y="0"
       width="18"
       height="14"
       xlink:href="data:image/png;base64,iVBORw0KGgoAAAANSUhEUgAAABIAAAAOCAYAAAAi2ky3AAAABmJLR0QA/wD/AP+gvaeTAAAAEUlEQVQokWNgGAWjYBSMTAAAA/4AAREPxiYAAAAASUVORK5CYII=" />
    <mask
       id="mask-0">
      <g
         filter="url(#filter-remove-color)"
         id="g2986">
        <use
           xlink:href="#source-17"
           id="use2984" />
      </g>
    </mask>
    <clipPath
       id="clip-0">
      <rect
         x="0"
         y="0"
         width="18"
         height="14"
         id="rect2989" />
    </clipPath>
    <g
       id="source-16"
       clip-path="url(#clip-0)">
      <path
         fill-rule="nonzero"
         fill="#ffffff"
         fill-opacity="1"
         d="m 18,8.554688 v 5.167968 H 0 V 8.554688 Z m 0,0"
         id="path2992" />
    </g>
    <clipPath
       id="clip-1">
      <rect
         x="0"
         y="0"
         width="18"
         height="14"
         id="rect2995" />
    </clipPath>
    <g
       id="source-19"
       clip-path="url(#clip-1)">
      <g
         mask="url(#mask-0)"
         id="g3000">
        <use
           xlink:href="#source-16"
           id="use2998" />
      </g>
    </g>
    <clipPath
       id="clip-1-3">
      <rect
         x="0"
         y="0"
         width="18"
         height="16"
         id="rect17" />
    </clipPath>
    <mask
       id="mask-0-6">
      <g
         filter="url(#filter-remove-color)"
         id="g8"
         style="filter:url(#filter-remove-color-7)">
        <image
           id="use6"
           x="0"
           y="0"
           width="18"
           height="16"
           xlink:href="data:image/png;base64,iVBORw0KGgoAAAANSUhEUgAAABIAAAAQCAYAAAAbBi9cAAAABmJLR0QA/wD/AP+gvaeTAAAAEklEQVQ4jWNgGAWjYBSMgsEBAASQAAFfmu8pAAAAAElFTkSuQmCC" />
      </g>
    </mask>
    <filter
       id="filter-remove-color-7"
       x="0"
       y="0"
       width="1"
       height="1">
      <feColorMatrix
         color-interpolation-filters="sRGB"
         values="0 0 0 0 1 0 0 0 0 1 0 0 0 0 1 0 0 0 1 0"
         id="feColorMatrix2" />
    </filter>
    <clipPath
       id="clip-0-5">
      <rect
         x="0"
         y="0"
         width="18"
         height="16"
         id="rect11" />
    </clipPath>
    <clipPath
       id="clipPath2554">
      <rect
         x="0"
         y="0"
         width="18"
         height="16"
         id="rect2552" />
    </clipPath>
    <clipPath
       id="clipPath2558">
      <rect
         x="0"
         y="0"
         width="18"
         height="16"
         id="rect2556" />
    </clipPath>
    <mask
       id="mask2564">
      <g
         filter="url(#filter-remove-color)"
         id="g2562"
         style="filter:url(#filter-remove-color-7)">
        <image
           id="use2560"
           x="0"
           y="0"
           width="18"
           height="16"
           xlink:href="data:image/png;base64,iVBORw0KGgoAAAANSUhEUgAAABIAAAAQCAYAAAAbBi9cAAAABmJLR0QA/wD/AP+gvaeTAAAAEklEQVQ4jWNgGAWjYBSMgsEBAASQAAFfmu8pAAAAAElFTkSuQmCC" />
      </g>
    </mask>
    <filter
       id="filter2568"
       x="0"
       y="0"
       width="1"
       height="1">
      <feColorMatrix
         color-interpolation-filters="sRGB"
         values="0 0 0 0 1 0 0 0 0 1 0 0 0 0 1 0 0 0 1 0"
         id="feColorMatrix2566" />
    </filter>
    <clipPath
       id="clipPath2572">
      <rect
         x="0"
         y="0"
         width="18"
         height="16"
         id="rect2570" />
    </clipPath>
  </defs>
  <path
     fill-rule="nonzero"
     fill="#000000"
     fill-opacity="1"
     d="m 18,0.0156243 v 9.753906 H 4e-7 v -9.753906 z m 0,0"
     id="path3005" />
  <path
     fill-rule="nonzero"
     fill="#ffffff"
     fill-opacity="1"
     d="m 3.3085944,8.1210933 v -5.425781 c -0.089844,0.125 -0.214844,0.242187 -0.382813,0.359375 -0.160156,0.109375 -0.351562,0.210937 -0.578125,0.300781 -0.222656,0.089844 -0.472656,0.152344 -0.75,0.191406 v -0.78125 c 0.273438,-0.046875 0.527344,-0.128906 0.761719,-0.25 0.238281,-0.125 0.445313,-0.261718 0.621094,-0.421875 0.183593,-0.160156 0.324219,-0.308593 0.425781,-0.457031 h 0.769531 v 6.484375 z m 0,0"
     id="path3007" />
  <path
     fill-rule="nonzero"
     fill="#ffffff"
     fill-opacity="1"
     d="m 8.9179694,8.2070303 c -0.457031,0 -0.867188,-0.105468 -1.226563,-0.324218 -0.359375,-0.222656 -0.644531,-0.574219 -0.851562,-1.054688 -0.203125,-0.480468 -0.304688,-1.113281 -0.304688,-1.894531 0,-0.765625 0.097656,-1.394531 0.296875,-1.890625 0.195313,-0.496094 0.476563,-0.863281 0.835938,-1.101562 0.359375,-0.242188 0.777343,-0.3632818 1.25,-0.3632818 0.523437,0 0.964843,0.1367188 1.3281246,0.4062498 0.359375,0.269532 0.59375,0.679688 0.691406,1.230469 h -0.832031 c -0.07031,-0.304687 -0.2031246,-0.535156 -0.4062496,-0.691406 -0.199219,-0.15625 -0.460938,-0.230469 -0.78125,-0.230469 -0.472657,0 -0.851563,0.210938 -1.128907,0.636719 -0.273437,0.421875 -0.410156,1.089843 -0.410156,2.003906 v 0.257813 c 0,0.566406 0.070313,1.019531 0.214844,1.359374 0.144531,0.335938 0.332031,0.578126 0.566406,0.726563 0.234375,0.148437 0.488282,0.222656 0.761719,0.222656 0.433594,0 0.753906,-0.132812 0.960937,-0.398437 0.2070316,-0.269532 0.3124996,-0.601563 0.3124996,-0.996094 0,-0.398438 -0.101562,-0.714844 -0.3085926,-0.945312 -0.203125,-0.230469 -0.488281,-0.34375 -0.859375,-0.34375 -0.429688,0 -0.804688,0.097656 -1.128906,0.300781 -0.324219,0.199219 -0.566407,0.433593 -0.730469,0.695312 l -0.09375,-0.632812 c 0.140625,-0.199219 0.3125,-0.382813 0.511719,-0.542969 0.207031,-0.164062 0.4375,-0.296875 0.695312,-0.390625 0.257812,-0.097656 0.546875,-0.144531 0.859375,-0.144531 0.367187,0 0.691406,0.078125 0.9804686,0.226562 0.285156,0.148438 0.515625,0.371094 0.683594,0.664063 0.167968,0.292969 0.25,0.65625 0.25,1.085937 0,0.414063 -0.08203,0.78125 -0.25,1.105469 -0.167969,0.320313 -0.410157,0.570313 -0.730469,0.753906 -0.3164066,0.179688 -0.6992186,0.269531 -1.1562496,0.269531 z m 0,0"
     id="path3009" />
  <path
     fill-rule="nonzero"
     fill="#ffffff"
     fill-opacity="1"
     d="m 14.175781,8.2070303 c -0.414062,0 -0.765625,-0.082031 -1.050781,-0.25 -0.285156,-0.171874 -0.515625,-0.410156 -0.6875,-0.707031 -0.171875,-0.304687 -0.296875,-0.65625 -0.378906,-1.054687 -0.07422,-0.398438 -0.113282,-0.828125 -0.113282,-1.292969 0,-0.46875 0.03906,-0.902344 0.113282,-1.304687 0.08203,-0.402344 0.207031,-0.753907 0.378906,-1.058594 0.171875,-0.304688 0.402344,-0.539063 0.6875,-0.707032 0.285156,-0.1718745 0.636719,-0.257812 1.050781,-0.257812 0.417969,0 0.765625,0.085937 1.050781,0.253906 0.285157,0.167969 0.515626,0.402344 0.6875,0.710938 0.171876,0.304687 0.292969,0.65625 0.371094,1.058594 0.07813,0.398437 0.117188,0.832031 0.117188,1.296874 0,0.464844 -0.03906,0.898438 -0.117188,1.300782 -0.07813,0.398437 -0.199218,0.75 -0.371094,1.054687 -0.171874,0.296875 -0.402343,0.535157 -0.6875,0.707031 -0.285156,0.167969 -0.632812,0.25 -1.050781,0.25 z m 0,-0.722656 c 0.273438,0 0.5,-0.074218 0.675781,-0.222656 0.171876,-0.148438 0.308594,-0.34375 0.402344,-0.59375 0.101563,-0.25 0.167969,-0.527344 0.203125,-0.835938 0.04297,-0.308593 0.0625,-0.621093 0.0625,-0.9375 0,-0.320312 -0.01953,-0.632812 -0.0625,-0.941406 -0.03516,-0.308594 -0.101562,-0.589844 -0.203125,-0.835937 -0.09375,-0.25 -0.230468,-0.449219 -0.402344,-0.597657 -0.175781,-0.148437 -0.402343,-0.222656 -0.675781,-0.222656 -0.273437,0 -0.5,0.074219 -0.675781,0.222656 -0.175781,0.148438 -0.3125,0.347657 -0.410156,0.597657 -0.101563,0.246093 -0.167969,0.527343 -0.207032,0.835937 -0.03906,0.308594 -0.05469,0.621094 -0.05469,0.941406 0,0.316407 0.01563,0.628907 0.05469,0.9375 0.03906,0.308594 0.105469,0.585938 0.207032,0.835938 0.09766,0.25 0.234375,0.445312 0.410156,0.59375 0.175781,0.148438 0.402344,0.222656 0.675781,0.222656 z m 0,0"
     id="path3011" />
  <path
     fill-rule="nonzero"
     fill="#000000"
     fill-opacity="1"
     d="M 4e-7,10.128906 H 18 v 5.167968 H 4e-7 Z m 0,0"
     id="path3013" />
  <use
     xlink:href="#source-19"
     id="use3015"
     transform="translate(4e-7,1.5742183)" />
  <path
     fill-rule="nonzero"
     fill="#000000"
     fill-opacity="1"
     d="m 0,10.128906 h 18 v 5.167969 H 0 Z m 0,0"
     id="path31" />
  <use
     xlink:href="#source-17"
     id="use33" />
  <path
     id="path1241"
     mask="none"
     style="fill:#ffffff;fill-opacity:1;stroke-width:1.28571"
     d="M 7.2226561,10.128906 1.2e-7,14.826172 v 0.470703 h 0.958984 L 8.9042969,10.128906 Z m 9.5312499,0 -7.7792967,5.167969 H 10.650391 L 18,10.414062 v -0.285156 z" />
</svg>

<?xml version="1.0" encoding="UTF-8"?>
<svg xmlns="http://www.w3.org/2000/svg" xmlns:xlink="http://www.w3.org/1999/xlink" width="18" height="15.285085" viewBox="0 0 18 15.285085">
<path fill-rule="nonzero" fill="rgb(0%, 0%, 0%)" fill-opacity="1" d="M 18 0 L 18 9.753906 L 0 9.753906 L 0 0 Z M 18 0 "/>
<path fill-rule="nonzero" fill="rgb(100%, 100%, 100%)" fill-opacity="1" d="M 3.308594 8.105469 L 3.308594 2.683594 C 3.21875 2.804688 3.09375 2.921875 2.925781 3.039062 C 2.765625 3.152344 2.574219 3.25 2.347656 3.339844 C 2.125 3.429688 1.875 3.496094 1.597656 3.535156 L 1.597656 2.753906 C 1.871094 2.707031 2.125 2.621094 2.359375 2.5 C 2.597656 2.378906 2.804688 2.238281 2.980469 2.078125 C 3.164062 1.921875 3.304688 1.769531 3.40625 1.625 L 4.175781 1.625 L 4.175781 8.105469 Z M 3.308594 8.105469 "/>
<path fill-rule="nonzero" fill="rgb(100%, 100%, 100%)" fill-opacity="1" d="M 8.917969 8.195312 C 8.460938 8.195312 8.050781 8.085938 7.691406 7.867188 C 7.332031 7.648438 7.046875 7.296875 6.839844 6.8125 C 6.636719 6.332031 6.535156 5.699219 6.535156 4.917969 C 6.535156 4.152344 6.632812 3.523438 6.832031 3.027344 C 7.027344 2.535156 7.308594 2.167969 7.667969 1.925781 C 8.027344 1.683594 8.445312 1.566406 8.917969 1.566406 C 9.441406 1.566406 9.882812 1.699219 10.246094 1.96875 C 10.605469 2.242188 10.839844 2.652344 10.9375 3.203125 L 10.105469 3.203125 C 10.035156 2.894531 9.902344 2.664062 9.699219 2.507812 C 9.5 2.355469 9.238281 2.277344 8.917969 2.277344 C 8.445312 2.277344 8.066406 2.488281 7.789062 2.914062 C 7.515625 3.335938 7.378906 4.003906 7.378906 4.917969 L 7.378906 5.175781 C 7.378906 5.742188 7.449219 6.195312 7.59375 6.535156 C 7.738281 6.875 7.925781 7.117188 8.160156 7.265625 C 8.394531 7.414062 8.648438 7.488281 8.921875 7.488281 C 9.355469 7.488281 9.675781 7.351562 9.882812 7.085938 C 10.089844 6.820312 10.195312 6.488281 10.195312 6.089844 C 10.195312 5.691406 10.09375 5.378906 9.886719 5.148438 C 9.683594 4.914062 9.398438 4.800781 9.027344 4.800781 C 8.597656 4.800781 8.222656 4.902344 7.898438 5.101562 C 7.574219 5.304688 7.332031 5.535156 7.167969 5.800781 L 7.074219 5.167969 C 7.214844 4.964844 7.386719 4.785156 7.585938 4.621094 C 7.792969 4.457031 8.023438 4.328125 8.28125 4.230469 C 8.539062 4.136719 8.828125 4.085938 9.140625 4.085938 C 9.507812 4.085938 9.832031 4.164062 10.121094 4.316406 C 10.40625 4.464844 10.636719 4.683594 10.804688 4.976562 C 10.972656 5.273438 11.054688 5.632812 11.054688 6.0625 C 11.054688 6.476562 10.972656 6.847656 10.804688 7.171875 C 10.636719 7.488281 10.394531 7.742188 10.074219 7.921875 C 9.757812 8.101562 9.375 8.195312 8.917969 8.195312 Z M 8.917969 8.195312 "/>
<path fill-rule="nonzero" fill="rgb(100%, 100%, 100%)" fill-opacity="1" d="M 14.175781 8.195312 C 13.761719 8.195312 13.410156 8.109375 13.125 7.941406 C 12.839844 7.769531 12.609375 7.535156 12.4375 7.234375 C 12.265625 6.929688 12.140625 6.578125 12.058594 6.179688 C 11.984375 5.78125 11.945312 5.351562 11.945312 4.890625 C 11.945312 4.421875 11.984375 3.984375 12.058594 3.582031 C 12.140625 3.179688 12.265625 2.828125 12.4375 2.523438 C 12.609375 2.222656 12.839844 1.984375 13.125 1.816406 C 13.410156 1.644531 13.761719 1.558594 14.175781 1.558594 C 14.59375 1.558594 14.941406 1.644531 15.226562 1.8125 C 15.511719 1.980469 15.742188 2.21875 15.914062 2.523438 C 16.085938 2.828125 16.207031 3.179688 16.285156 3.582031 C 16.363281 3.980469 16.402344 4.414062 16.402344 4.878906 C 16.402344 5.34375 16.363281 5.777344 16.285156 6.179688 C 16.207031 6.578125 16.085938 6.929688 15.914062 7.234375 C 15.742188 7.535156 15.511719 7.769531 15.226562 7.941406 C 14.941406 8.109375 14.59375 8.195312 14.175781 8.195312 Z M 14.175781 7.472656 C 14.449219 7.472656 14.675781 7.398438 14.851562 7.25 C 15.023438 7.101562 15.160156 6.902344 15.253906 6.65625 C 15.355469 6.40625 15.421875 6.125 15.457031 5.820312 C 15.5 5.507812 15.519531 5.195312 15.519531 4.878906 C 15.519531 4.558594 15.5 4.246094 15.457031 3.9375 C 15.421875 3.628906 15.355469 3.351562 15.253906 3.101562 C 15.160156 2.851562 15.023438 2.652344 14.851562 2.503906 C 14.675781 2.355469 14.449219 2.28125 14.175781 2.28125 C 13.902344 2.28125 13.675781 2.355469 13.5 2.503906 C 13.324219 2.652344 13.1875 2.851562 13.089844 3.101562 C 12.988281 3.351562 12.921875 3.628906 12.882812 3.9375 C 12.84375 4.246094 12.828125 4.558594 12.828125 4.878906 C 12.828125 5.195312 12.84375 5.507812 12.882812 5.820312 C 12.921875 6.125 12.988281 6.40625 13.089844 6.65625 C 13.1875 6.902344 13.324219 7.101562 13.5 7.25 C 13.675781 7.398438 13.902344 7.472656 14.175781 7.472656 Z M 14.175781 7.472656 "/>
<path fill-rule="nonzero" fill="rgb(0%, 0%, 0%)" fill-opacity="1" d="M 0 10.121094 L 18 10.121094 L 18 15.285156 L 0 15.285156 Z M 0 10.121094 "/>
<path fill-rule="nonzero" fill="rgb(0%, 0%, 0%)" fill-opacity="1" d="M 0 10.121094 L 18 10.121094 L 18 15.285156 L 0 15.285156 Z M 0 10.121094 "/>
<path fill-rule="nonzero" fill="rgb(100%, 100%, 100%)" fill-opacity="1" d="M 7.222656 10.121094 L 0 14.8125 L 0 15.285156 L 0.957031 15.285156 L 8.90625 10.121094 Z M 16.753906 10.121094 L 8.972656 15.285156 L 10.652344 15.285156 L 18 10.40625 L 18 10.121094 Z M 16.753906 10.121094 "/>
</svg>
